src/assets/images/icons/social/x.svg

<svg fill="none" viewBox="0 0 18 20" xmlns="http://www.w3.org/2000/svg"><path d="m10.7124 8.59149 6.7009-7.789263h-1.5879l-5.8183 6.763303-4.64718-6.763303h-5.35992l7.02738 10.227273-7.02738 8.1683h1.58799l6.14438-7.1423 4.90773 7.1423h5.3599l-7.2879-10.60631zm-2.17493 2.52811-.71201-1.0184-5.66529-8.10356h2.43905l4.57196 6.53986.71202 1.01841 5.943 8.50079h-2.4391l-4.84963-6.9367z" fill="#f9f9fb"/></svg>

<svg viewBox="0 0 18 20" fill="none" xmlns="http://www.w3.org/2000/svg">
<path id="Vector" d="M10.7124 8.59149L17.4133 0.802227H15.8254L10.0071 7.56553L5.35992 0.802227H0L7.02738 11.0295L0 19.1978H1.58799L7.73237 12.0555L12.6401 19.1978H18L10.7121 8.59149H10.7124ZM8.53747 11.1196L7.82546 10.1012L2.16017 1.99764H4.59922L9.17118 8.5375L9.8832 9.55591L15.8262 18.0567H13.3871L8.53747 11.12V11.1196Z" fill="#F9F9FB"/>
</svg>
